X: 1
T: Pretty Peg 
D: Harvest Storm, Altan
M: 4/4
L: 1/8
K: D 
defd ADFA|defd e/f/g fe|defd AFDF|G/F/E FD CEA,A|
defd ADFA|defd e/f/g fe|defd AFDF|G/F/E FD CEA,E|| 
FDAD BDAD|FDAD CEEG|F/E/D AD BDAD|FDAD A,DDE| 
FDdD cDBD|ADFD CEEG|FAdf ecdB|AFGE D2 A/B/c||
